; G-Code generated by Simplify3D(R) Version 4.1.1
; Apr 10, 2019 at 10:55:52 AM
; Settings Summary
;   processName,Process1
;   applyToModels,dreadball_base_20
;   profileName,Prusa Mendel (modified)
;   profileVersion,2015-05-01 08:00:00
;   baseProfile,
;   printMaterial,ABS
;   printQuality,Medium
;   printExtruders,
;   extruderName,Primary Extruder
;   extruderToolheadNumber,0
;   extruderDiameter,0.35
;   extruderAutoWidth,0
;   extruderWidth,0.4
;   extrusionMultiplier,1
;   extruderUseRetract,1
;   extruderRetractionDistance,1
;   extruderExtraRestartDistance,0
;   extruderRetractionZLift,0
;   extruderRetractionSpeed,1800
;   extruderUseCoasting,0
;   extruderCoastingDistance,0.2
;   extruderUseWipe,0
;   extruderWipeDistance,5
;   primaryExtruder,0
;   layerHeight,0.2
;   topSolidLayers,3
;   bottomSolidLayers,3
;   perimeterOutlines,2
;   printPerimetersInsideOut,1
;   startPointOption,2
;   startPointOriginX,0
;   startPointOriginY,0
;   sequentialIslands,0
;   spiralVaseMode,0
;   firstLayerHeightPercentage,90
;   firstLayerWidthPercentage,100
;   firstLayerUnderspeed,0.5
;   useRaft,0
;   raftExtruder,0
;   raftTopLayers,3
;   raftBaseLayers,2
;   raftOffset,3
;   raftSeparationDistance,0.14
;   raftTopInfill,100
;   aboveRaftSpeedMultiplier,0.3
;   useSkirt,1
;   skirtExtruder,0
;   skirtLayers,1
;   skirtOutlines,2
;   skirtOffset,4
;   usePrimePillar,0
;   primePillarExtruder,999
;   primePillarWidth,12
;   primePillarLocation,7
;   primePillarSpeedMultiplier,1
;   useOozeShield,0
;   oozeShieldExtruder,999
;   oozeShieldOffset,2
;   oozeShieldOutlines,1
;   oozeShieldSidewallShape,1
;   oozeShieldSidewallAngle,30
;   oozeShieldSpeedMultiplier,1
;   infillExtruder,0
;   internalInfillPattern,Rectilinear
;   externalInfillPattern,Rectilinear
;   infillPercentage,100
;   outlineOverlapPercentage,15
;   infillExtrusionWidthPercentage,100
;   minInfillLength,5
;   infillLayerInterval,1
;   internalInfillAngles,45,-45
;   overlapInternalInfillAngles,0
;   externalInfillAngles,45,-45
;   generateSupport,0
;   supportExtruder,0
;   supportInfillPercentage,30
;   supportExtraInflation,0
;   supportBaseLayers,0
;   denseSupportExtruder,0
;   denseSupportLayers,0
;   denseSupportInfillPercentage,70
;   supportLayerInterval,1
;   supportHorizontalPartOffset,0.3
;   supportUpperSeparationLayers,1
;   supportLowerSeparationLayers,1
;   supportType,0
;   supportGridSpacing,4
;   maxOverhangAngle,45
;   supportAngles,0
;   temperatureName,Primary Extruder,Heated Bed
;   temperatureNumber,0,1
;   temperatureSetpointCount,1,1
;   temperatureSetpointLayers,1,1
;   temperatureSetpointTemperatures,240,0
;   temperatureStabilizeAtStartup,1,1
;   temperatureHeatedBed,0,1
;   fanLayers,1
;   fanSpeeds,0
;   blipFanToFullPower,1
;   adjustSpeedForCooling,1
;   minSpeedLayerTime,15
;   minCoolingSpeedSlowdown,20
;   increaseFanForCooling,0
;   minFanLayerTime,45
;   maxCoolingFanSpeed,100
;   increaseFanForBridging,0
;   bridgingFanSpeed,100
;   use5D,1
;   relativeEdistances,0
;   allowEaxisZeroing,1
;   independentExtruderAxes,0
;   includeM10123,0
;   stickySupport,1
;   applyToolheadOffsets,0
;   gcodeXoffset,0
;   gcodeYoffset,0
;   gcodeZoffset,0
;   overrideMachineDefinition,1
;   machineTypeOverride,0
;   strokeXoverride,200
;   strokeYoverride,200
;   strokeZoverride,100
;   originOffsetXoverride,0
;   originOffsetYoverride,0
;   originOffsetZoverride,0
;   homeXdirOverride,-1
;   homeYdirOverride,-1
;   homeZdirOverride,-1
;   flipXoverride,1
;   flipYoverride,-1
;   flipZoverride,1
;   toolheadOffsets,0,0|0,0|0,0|0,0|0,0|0,0
;   overrideFirmwareConfiguration,1
;   firmwareTypeOverride,RepRap (Marlin/Repetier/Sprinter)
;   GPXconfigOverride,r2
;   baudRateOverride,250000
;   overridePrinterModels,1
;   printerModelsOverride
;   startingGcode,G28 ; home all axes
;   layerChangeGcode,
;   retractionGcode,
;   toolChangeGcode,
;   endingGcode,M104 S0 ; turn off extruder,M140 S0 ; turn off bed,G28 X0 ; home X axis,M84 ; disable motors
;   exportFileFormat,gcode
;   celebration,0
;   celebrationSong,Random Song
;   postProcessing,
;   defaultSpeed,3600
;   outlineUnderspeed,0.5
;   solidInfillUnderspeed,0.8
;   supportUnderspeed,0.8
;   rapidXYspeed,4800
;   rapidZspeed,1000
;   minBridgingArea,50
;   bridgingExtraInflation,0
;   bridgingExtrusionMultiplier,1
;   bridgingSpeedMultiplier,1
;   useFixedBridgingAngle,0
;   fixedBridgingAngle,0
;   applyBridgingToPerimeters,0
;   filamentDiameters,1.75|1.75|1.75|1.75|1.75|1.75
;   filamentPricesPerKg,46|46|46|46|46|46
;   filamentDensities,1.25|1.25|1.25|1.25|1.25|1.25
;   useMinPrintHeight,0
;   minPrintHeight,0
;   useMaxPrintHeight,0
;   maxPrintHeight,0
;   useDiaphragm,0
;   diaphragmLayerInterval,20
;   robustSlicing,1
;   mergeAllIntoSolid,0
;   onlyRetractWhenCrossingOutline,1
;   retractBetweenLayers,1
;   useRetractionMinTravel,0
;   retractionMinTravel,3
;   retractWhileWiping,0
;   onlyWipeOutlines,1
;   avoidCrossingOutline,0
;   maxMovementDetourFactor,3
;   toolChangeRetractionDistance,12
;   toolChangeExtraRestartDistance,-0.5
;   toolChangeRetractionSpeed,600
;   externalThinWallType,0
;   internalThinWallType,2
;   thinWallAllowedOverlapPercentage,10
;   singleExtrusionMinLength,1
;   singleExtrusionMinPrintingWidthPercentage,50
;   singleExtrusionMaxPrintingWidthPercentage,200
;   singleExtrusionEndpointExtension,0.2
;   horizontalSizeCompensation,0
G90
M82
M106 S0
M140 S0
M104 S240 T0
M109 S240 T0
G28 ; home all axes
; process Process1
; layer 1, Z = 0.180
T0
G92 E0.0000
G1 E-1.0000 F1800
; feature skirt
; tool H0.180 W0.400
G1 Z0.180 F1000
G1 X92.374 Y75.133 F4800
G1 E0.0000 F1800
G92 E0.0000
G1 X94.509 Y73.900 E0.0738 F1800
G1 X105.490 Y73.900 E0.4025
G1 X107.625 Y75.133 E0.4763
G1 X113.114 Y84.643 E0.8050
G1 X113.115 Y87.107 E0.8788
G1 X109.874 Y92.721 E1.0728
G1 X110.585 Y93.131 E1.0974
G1 X119.036 Y107.767 E1.6033
G1 X119.035 Y110.233 E1.6771
G1 X110.585 Y124.868 E2.1829
G1 X108.450 Y126.100 E2.2567
G1 X91.549 Y126.100 E2.7626
G1 X89.414 Y124.867 E2.8364
G1 X80.965 Y110.233 E3.3423
G1 X80.964 Y107.768 E3.4161
G1 X89.414 Y93.132 E3.9219
G1 X90.124 Y92.721 E3.9465
G1 X86.883 Y87.107 E4.1405
G1 X86.884 Y84.642 E4.2143
G1 X92.374 Y75.133 E4.5430
G92 E0.0000
G1 E-1.0000 F1800
G1 X92.667 Y75.425 F4800
G1 E0.0000 F1800
G92 E0.0000
G1 X94.616 Y74.300 E0.0674 F1800
G1 X105.383 Y74.300 E0.3897
G1 X107.332 Y75.426 E0.4571
G1 X112.714 Y84.750 E0.7793
G1 X112.715 Y87.000 E0.8467
G1 X109.328 Y92.868 E1.0495
G1 X110.292 Y93.424 E1.0828
G1 X118.636 Y107.875 E1.5823
G1 X118.635 Y110.126 E1.6497
G1 X110.292 Y124.575 E2.1491
G1 X108.343 Y125.700 E2.2165
G1 X91.656 Y125.700 E2.7160
G1 X89.707 Y124.575 E2.7834
G1 X81.365 Y110.125 E3.2828
G1 X81.364 Y107.875 E3.3502
G1 X89.707 Y93.424 E3.8496
G1 X90.671 Y92.868 E3.8830
G1 X87.283 Y87.000 E4.0858
G1 X87.284 Y84.750 E4.1531
G1 X92.667 Y75.425 E4.4754
G92 E0.0000
G1 E-1.0000 F1800
; feature inner perimeter
G1 X96.088 Y79.100 F4800
G1 E0.0000 F1800
G92 E0.0000
G1 X103.911 Y79.100 E0.2342 F1350
G1 X107.822 Y85.875 E0.4683
G1 X103.911 Y92.651 E0.7025
G1 X100.865 Y92.651 E0.7937
G1 X100.865 Y97.099 E0.9269
G1 X106.871 Y97.099 E1.1067
G1 X113.743 Y109.000 E1.5180
G1 X106.871 Y120.900 E1.9294
G1 X93.128 Y120.900 E2.3408
G1 X86.257 Y109.000 E2.7521
G1 X93.128 Y97.099 E3.1634
G1 X99.134 Y97.099 E3.3432
G1 X99.134 Y92.651 E3.4764
G1 X96.088 Y92.651 E3.5676
G1 X92.176 Y85.875 E3.8018
G1 X96.088 Y79.100 E4.0360
; feature outer perimeter
G1 X95.857 Y78.700 F4800
G92 E0.0000
G1 X104.142 Y78.700 E0.2480 F900
G1 X108.284 Y85.875 E0.4960
G1 X104.142 Y93.051 E0.7440
G1 X101.265 Y93.051 E0.8301
G1 X101.265 Y96.699 E0.9393
G1 X107.102 Y96.699 E1.1141
G1 X114.205 Y109.000 E1.5393
G1 X107.102 Y121.300 E1.9644
G1 X92.897 Y121.300 E2.3897
G1 X85.795 Y109.000 E2.8148
G1 X92.897 Y96.699 E3.2400
G1 X98.734 Y96.699 E3.4147
G1 X98.734 Y93.051 E3.5239
G1 X95.857 Y93.051 E3.6101
G1 X91.714 Y85.875 E3.8581
G1 X95.857 Y78.700 E4.1061
G92 E0.0000
G1 E-1.0000 F1800
; feature inner perimeter
G1 X99.999 Y106.776 F4800
G1 E0.0000 F1800
G92 E0.0000
G1 X98.888 Y107.074 E0.0345 F1350
G1 X98.074 Y107.888 E0.0689
G1 X97.775 Y109.000 E0.1034
G1 X98.074 Y110.112 E0.1378
G1 X98.888 Y110.926 E0.1723
G1 X99.999 Y111.224 E0.2067
G1 X101.112 Y110.926 E0.2412
G1 X101.925 Y110.111 E0.2757
G1 X102.224 Y109.000 E0.3101
G1 X101.925 Y107.889 E0.3446
G1 X101.112 Y107.074 E0.3790
G1 X99.999 Y106.776 E0.4135
; feature outer perimeter
G1 X99.999 Y107.190 F4800
G92 E0.0000
G1 X99.095 Y107.433 E0.0280 F900
G1 X98.432 Y108.095 E0.0561
G1 X98.189 Y109.000 E0.0841
G1 X98.432 Y109.905 E0.1122
G1 X99.095 Y110.567 E0.1402
G1 X99.999 Y110.810 E0.1683
G1 X100.905 Y110.567 E0.1963
G1 X101.567 Y109.904 E0.2244
G1 X101.810 Y109.000 E0.2524
G1 X101.567 Y108.096 E0.2804
G1 X100.905 Y107.433 E0.3085
G1 X99.999 Y107.190 E0.3365
; feature solid layer
G1 X102.294 Y107.951 F4800
G92 E0.0000
G1 X109.687 Y115.344 E0.3130 F1440
G1 X109.480 Y115.702 E0.3254
G1 X102.502 Y108.724 E0.6208
G1 X102.576 Y109.000 E0.6293
G1 X102.499 Y109.287 E0.6382
G1 X109.273 Y116.061 E0.9250
G1 X109.066 Y116.420 E0.9374
G1 X102.379 Y109.733 E1.2204
G1 X102.259 Y110.179 E1.2342
G1 X108.859 Y116.778 E1.5136
G1 X108.652 Y117.137 E1.5260
G1 X102.016 Y110.502 E1.8069
G1 X101.734 Y110.785 E1.8189
G1 X108.444 Y117.495 E2.1030
G1 X108.237 Y117.854 E2.1154
G1 X101.451 Y111.068 E2.4026
G1 X101.289 Y111.231 E2.4095
G1 X101.099 Y111.281 E2.4154
G1 X108.030 Y118.213 E2.7088
G1 X107.823 Y118.571 E2.7212
G1 X100.653 Y111.401 E3.0248
G1 X100.207 Y111.521 E3.0386
G1 X107.616 Y118.930 E3.3522
G1 X107.409 Y119.288 E3.3646
G1 X99.586 Y111.465 E3.6958
G1 X93.407 Y120.560 F4800
G92 E0.0000
G1 X93.211 Y120.364 E0.0083 F1440
G1 X92.438 Y119.025 E0.0546
G1 X93.973 Y120.560 E0.1195
G1 X94.538 Y120.560 E0.1365
G1 X91.665 Y117.687 E0.2581
G1 X90.893 Y116.348 E0.3044
G1 X95.104 Y120.560 E0.4826
G1 X95.670 Y120.560 E0.4996
G1 X90.120 Y115.010 E0.7345
G1 X89.347 Y113.672 E0.7808
G1 X96.236 Y120.560 E1.0724
G1 X96.801 Y120.560 E1.0893
G1 X88.574 Y112.333 E1.4376
G1 X87.802 Y110.995 E1.4839
G1 X97.367 Y120.560 E1.8888
G1 X97.933 Y120.560 E1.9057
G1 X87.029 Y109.656 E2.3673
G1 X86.650 Y109.000 E2.3900
G1 X86.755 Y108.817 E2.3963
G1 X98.498 Y120.560 E2.8934
G1 X99.064 Y120.560 E2.9104
G1 X86.962 Y108.459 E3.4227
G1 X87.170 Y108.100 E3.4351
G1 X99.630 Y120.560 E3.9625
G1 X100.195 Y120.560 E3.9795
G1 X87.377 Y107.741 E4.5221
G1 X87.584 Y107.383 E4.5345
G1 X100.761 Y120.560 E5.0924
G1 X101.327 Y120.560 E5.1093
G1 X87.791 Y107.024 E5.6823
G1 X87.998 Y106.665 E5.6947
G1 X101.892 Y120.560 E6.2829
G1 X102.458 Y120.560 E6.2999
G1 X88.205 Y106.307 E6.9033
G1 X88.412 Y105.948 E6.9157
G1 X103.024 Y120.560 E7.5342
G1 X103.589 Y120.560 E7.5512
G1 X88.619 Y105.589 E8.1849
G1 X88.826 Y105.231 E8.1973
G1 X104.155 Y120.560 E8.8462
G1 X104.721 Y120.560 E8.8632
G1 X89.033 Y104.872 E9.5273
G1 X89.240 Y104.514 E9.5397
G1 X105.287 Y120.560 E10.2190
G1 X105.852 Y120.560 E10.2359
G1 X89.447 Y104.155 E10.9304
G1 X89.654 Y103.796 E10.9428
G1 X106.418 Y120.560 E11.6525
G1 X106.675 Y120.560 E11.6602
G1 X106.788 Y120.364 E11.6669
G1 X89.861 Y103.438 E12.3835
G1 X90.068 Y103.079 E12.3959
G1 X106.995 Y120.006 E13.1124
G1 X107.202 Y119.647 E13.1248
G1 X98.813 Y111.258 E13.4800
G1 X98.712 Y111.231 E13.4831
G1 X97.769 Y110.288 E13.5230
G1 X97.742 Y110.187 E13.5262
G1 X90.275 Y102.720 E13.8422
G1 X90.482 Y102.362 E13.8546
G1 X97.534 Y109.414 E14.1532
G1 X97.423 Y109.000 E14.1660
G1 X97.479 Y108.793 E14.1724
G1 X90.689 Y102.003 E14.4598
G1 X90.896 Y101.644 E14.4722
G1 X97.599 Y108.347 E14.7560
G1 X97.718 Y107.901 E14.7698
G1 X91.103 Y101.286 E15.0498
G1 X91.310 Y100.927 E15.0622
G1 X97.932 Y107.549 E15.3425
G1 X98.215 Y107.266 E15.3545
G1 X91.518 Y100.568 E15.6380
G1 X91.725 Y100.210 E15.6504
G1 X98.498 Y106.983 E15.9372
G1 X98.712 Y106.769 E15.9462
G1 X98.821 Y106.740 E15.9496
G1 X91.932 Y99.851 E16.2412
G1 X92.139 Y99.493 E16.2536
G1 X99.267 Y106.620 E16.5554
G1 X99.713 Y106.501 E16.5692
G1 X92.346 Y99.134 E16.8810
G1 X92.553 Y98.775 E16.8934
G1 X100.275 Y106.498 E17.2204
G1 X101.048 Y106.705 E17.2443
G1 X92.760 Y98.417 E17.5952
G1 X92.967 Y98.058 E17.6076
G1 X109.894 Y114.985 E18.3242
G1 X110.101 Y114.627 E18.3366
G1 X93.174 Y97.699 E19.0531
G1 X93.324 Y97.439 E19.0621
G1 X93.479 Y97.439 E19.0668
G1 X110.308 Y114.268 E19.7792
G1 X110.515 Y113.909 E19.7916
G1 X94.045 Y97.439 E20.4888
G1 X94.611 Y97.439 E20.5058
G1 X110.722 Y113.551 E21.1878
G1 X110.929 Y113.192 E21.2002
G1 X95.176 Y97.439 E21.8671
G1 X95.742 Y97.439 E21.8840
G1 X111.136 Y112.833 E22.5357
G1 X111.344 Y112.475 E22.5481
G1 X96.308 Y97.439 E23.1846
G1 X96.873 Y97.439 E23.2016
G1 X111.551 Y112.116 E23.8229
G1 X111.758 Y111.758 E23.8353
G1 X97.439 Y97.439 E24.4415
G1 X98.005 Y97.439 E24.4584
G1 X111.965 Y111.399 E25.0494
G1 X112.172 Y111.040 E25.0618
G1 X98.570 Y97.439 E25.6376
G1 X99.136 Y97.439 E25.6545
G1 X112.379 Y110.682 E26.2151
G1 X112.586 Y110.323 E26.2275
G1 X99.474 Y97.212 E26.7826
G1 X100.525 Y93.736 F4800
G92 E0.0000
G1 X99.474 Y92.686 E0.0445 F1440
G1 X99.474 Y93.252 E0.0614
G1 X100.525 Y94.302 E0.1058
G1 X100.525 Y94.868 E0.1228
G1 X99.474 Y93.818 E0.1672
G1 X99.474 Y94.383 E0.1842
G1 X100.525 Y95.433 E0.2286
G1 X100.525 Y95.999 E0.2456
G1 X99.474 Y94.949 E0.2900
G1 X99.474 Y95.515 E0.3069
G1 X100.525 Y96.565 E0.3514
G1 X100.525 Y97.130 E0.3683
G1 X99.474 Y96.080 E0.4128
G1 X99.474 Y96.646 E0.4297
G1 X112.793 Y109.965 E0.9935
G1 X113.000 Y109.606 E1.0059
G1 X100.833 Y97.439 E1.5210
G1 X101.399 Y97.439 E1.5379
G1 X113.207 Y109.247 E2.0378
G1 X113.350 Y109.000 E2.0464
G1 X113.110 Y108.585 E2.0607
G1 X101.964 Y97.439 E2.5326
G1 X102.530 Y97.439 E2.5495
G1 X112.337 Y107.246 E2.9647
G1 X111.565 Y105.908 E3.0109
G1 X103.096 Y97.439 E3.3695
G1 X103.662 Y97.439 E3.3864
G1 X110.792 Y104.569 E3.6882
G1 X110.019 Y103.231 E3.7345
G1 X104.227 Y97.439 E3.9797
G1 X104.793 Y97.439 E3.9966
G1 X109.246 Y101.892 E4.1851
G1 X108.473 Y100.553 E4.2314
G1 X105.359 Y97.439 E4.3632
G1 X105.924 Y97.439 E4.3802
G1 X107.700 Y99.215 E4.4553
G1 X106.927 Y97.876 E4.5016
G1 X106.490 Y97.439 E4.5201
G92 E0.0000
G1 E-1.0000 F1800
G1 X96.836 Y92.311 F4800
G1 E0.0000 F1800
G92 E0.0000
G1 X95.530 Y91.005 E0.0553 F1440
G1 X94.758 Y89.666 E0.1016
G1 X97.402 Y92.311 E0.2135
G1 X97.968 Y92.311 E0.2304
G1 X93.985 Y88.328 E0.3990
G1 X93.213 Y86.990 E0.4453
G1 X98.534 Y92.311 E0.6706
G1 X99.099 Y92.311 E0.6875
G1 X92.603 Y85.815 E0.9625
G1 X92.810 Y85.457 E0.9749
G1 X100.525 Y93.171 E1.3014
G1 X100.525 Y92.605 E1.3184
G1 X93.018 Y85.098 E1.6362
G1 X93.225 Y84.739 E1.6486
G1 X100.796 Y92.311 E1.9691
G1 X101.362 Y92.311 E1.9860
G1 X93.432 Y84.381 E2.3217
G1 X93.639 Y84.022 E2.3341
G1 X101.928 Y92.311 E2.6850
G1 X102.493 Y92.311 E2.7020
G1 X93.846 Y83.663 E3.0680
G1 X94.053 Y83.305 E3.0804
G1 X103.059 Y92.311 E3.4617
G1 X103.625 Y92.311 E3.4786
G1 X94.260 Y82.946 E3.8751
G1 X94.467 Y82.588 E3.8875
G1 X103.889 Y92.009 E4.2863
G1 X104.096 Y91.651 E4.2987
G1 X94.674 Y82.229 E4.6976
G1 X94.881 Y81.870 E4.7100
G1 X104.303 Y91.292 E5.1088
G1 X104.510 Y90.933 E5.1212
G1 X95.088 Y81.512 E5.5201
G1 X95.295 Y81.153 E5.5325
G1 X104.717 Y90.575 E5.9313
G1 X104.924 Y90.216 E5.9437
G1 X95.502 Y80.794 E6.3426
G1 X95.709 Y80.436 E6.3550
G1 X105.131 Y89.857 E6.7538
G1 X105.338 Y89.499 E6.7662
G1 X95.916 Y80.077 E7.1650
G1 X96.123 Y79.719 E7.1774
G1 X105.545 Y89.140 E7.5763
G1 X105.752 Y88.781 E7.5887
G1 X96.411 Y79.440 E7.9841
G1 X96.976 Y79.440 E8.0011
G1 X105.959 Y88.423 E8.3813
